src/lib/packages/icons/src/assets/line/whatsapp.svg

<svg width="24" height="24" viewBox="0 0 24 24" fill="none" xmlns="http://www.w3.org/2000/svg">
<path fill-rule="evenodd" clip-rule="evenodd" d="M11.9999 2.25C6.61994 2.25 2.24994 6.62 2.24994 12C2.24994 13.64 2.66995 15.25 3.44995 16.69L1.90991 22.09L7.30994 20.55C8.74994 21.34 10.3599 21.75 11.9999 21.75C17.3799 21.75 21.7499 17.38 21.7499 12C21.7499 6.62 17.3799 2.25 11.9999 2.25ZM11.9999 20.25C10.5199 20.25 9.06992 19.85 7.78992 19.1L7.50995 18.93L4.08997 19.91L5.06995 16.49L4.90991 16.21C4.14991 14.94 3.74994 13.48 3.74994 12C3.74994 7.45 7.44994 3.75 11.9999 3.75C16.5499 3.75 20.2499 7.45 20.2499 12C20.2499 16.55 16.5499 20.25 11.9999 20.25ZM16.9699 14.26C17.0299 14.36 17.03 14.86 16.83 15.44C16.62 16.03 15.6199 16.57 15.1699 16.62C14.7199 16.67 14.2999 16.83 12.2199 16.01C9.71991 15.01 8.12995 12.43 8.00995 12.27C7.88995 12.11 7.00995 10.93 7.00995 9.71001C7.00995 8.49001 7.63993 7.9 7.86993 7.64C8.09993 7.39 8.36997 7.33 8.52997 7.33C8.69997 7.33 8.85995 7.33 9.00995 7.34C9.17995 7.34 9.37994 7.33999 9.55994 7.75999C9.77994 8.24999 10.2499 9.47 10.3099 9.58C10.3699 9.7 10.41 9.84999 10.33 10.01C10.24 10.17 10.2 10.28 10.08 10.42C9.95996 10.56 9.81996 10.74 9.70996 10.85C9.57996 10.97 9.45991 11.1 9.59991 11.35C9.74991 11.59 10.2399 12.41 10.9699 13.06C11.9099 13.91 12.7 14.17 12.95 14.29C13.19 14.41 13.3399 14.39 13.4799 14.23C13.6299 14.07 14.0999 13.51 14.2599 13.26C14.4199 13.02 14.5799 13.06 14.8099 13.14C15.0399 13.22 16.2399 13.83 16.4899 13.95C16.7299 14.08 16.9 14.14 16.96 14.24L16.9699 14.26Z" fill="currentColor"/>
</svg>

<svg xmlns="http://www.w3.org/2000/svg" width="24" height="24" fill="none"><path fill="currentColor" fill-rule="evenodd" d="M12 2.25c-5.38 0-9.75 4.37-9.75 9.75 0 1.64.42 3.25 1.2 4.69l-1.54 5.4 5.4-1.54c1.44.79 3.05 1.2 4.69 1.2 5.38 0 9.75-4.37 9.75-9.75S17.38 2.25 12 2.25Zm0 18c-1.48 0-2.93-.4-4.21-1.15l-.28-.17-3.42.98.98-3.42-.16-.28A8.21 8.21 0 0 1 3.75 12c0-4.55 3.7-8.25 8.25-8.25s8.25 3.7 8.25 8.25-3.7 8.25-8.25 8.25Zm4.97-5.99c.06.1.06.6-.14 1.18-.21.59-1.21 1.13-1.66 1.18-.45.05-.87.21-2.95-.61-2.5-1-4.09-3.58-4.21-3.74-.12-.16-1-1.34-1-2.56s.63-1.81.86-2.07c.23-.25.5-.31.66-.31.17 0 .33 0 .48.01.17 0 .37 0 .55.42.22.49.69 1.71.75 1.82.06.12.1.27.02.43-.09.16-.13.27-.25.41-.12.14-.26.32-.37.43-.13.12-.25.25-.11.5.15.24.64 1.06 1.37 1.71.94.85 1.73 1.11 1.98 1.23.24.12.39.1.53-.06.15-.16.62-.72.78-.97.16-.24.32-.2.55-.12.23.08 1.43.69 1.68.81.24.13.41.19.47.29l.01.02Z" clip-rule="evenodd"/></svg>
